!!! OTL: Berkowitz573
!!! Chapter: 1
!!! Section: V
!!! Page: 155
!!! Mode: 
!!! Encoder: CD
**kern
*staff1
=1-
*clefG2
*k[]
*C:
*M9/8
8c/L
8f/
8g/J
4g#/
8c#/
8f#/L
8B/J
8r
=2
8c/L
8g/
8a/J
4b-\
8e-/
8d-/L
8a-/
8e-/J
=3
8e/L
8B/
8c/J
8d/L
8a/
8g/J
4f#/
8r
=4
!!linebreak:original
4dd-\
8dd-\
4a-/
8a-/
4b-\
8an/
=5
4.d/
8d-/L
8g-/
8a-/J
4an/
8d-/
=6
8c/L
8f/
8e-/J
4b-\
8f/
4r
8r
=7
8g\L
8dd\
8dd-\J
4.a-/
8b-/L
8f/
8g/J
=8
!!linebreak:original
[4.c/
4.c/]
4r
8r
==
*-
